icons/vuetify/vuetify-line.svg

<svg viewBox="0 0 128 128" fill="none" xmlns="http://www.w3.org/2000/svg">
    <path
        d="M31.5312 0L64 59.1034V59.5862L96 0H64H31.5312ZM48.1042 8.82759H64V37.5086L63.9271 37.6466L48.1042 8.82759ZM0 17.6552L64 128L128 17.6552H96L64 75.0345L32 17.6552H0ZM102.823 26.4828H111.052L64 107.603V96.1034L73.6875 78.7414L102.823 26.4828Z"
        fill="black" />
</svg>

<svg viewBox="0 0 128 128" fill="none" xmlns="http://www.w3.org/2000/svg"><path d="M31.531 0L64 59.103v.483L96 0H31.531zm16.573 8.828H64v28.68l-.073.139-15.823-28.82zM0 17.655L64 128l64-110.345H96l-32 57.38-32-57.38H0zm102.823 8.828h8.229L64 107.603v-11.5l9.688-17.362 29.135-52.258z" fill="#000"/></svg>
